X:1
T:Title
L:1/8
Q:1/4=100
M:6/8
K:G
V:1 treble nm="Church Organ, Staff"
V:1
 d d2 B A2 | B G2 A D2 | D G2 A B2 | d c2 B A2 | d d2 B A2 | B G2 A D2- | D G2 G B2 | c d2 G e2- | %8
w: By~H.~S.~Irons * * *||||||||
 e E2 E A2 | G F2 F G2 |] %10
w: ||

